X:1
T:A Blessing for Someone
T:A Blessing for Someone
T:Florence W.  Williams Falconer
T:Edith J. Sanford Tillotson, 1910
T:Public Domain Courtesy of the Cyber Hymnal™
C:Florence W.  Williams Falconer
Z:Public Domain
Z:Courtesy of the Cyber Hymnal™
%%score ( 1 2 ) ( 3 4 )
L:1/8
Q:1/4=100
M:6/8
K:Bb
V:1 treble 
V:2 treble 
V:3 bass 
V:4 bass 
V:1
 FG[DA] Bc[Dd] | c3 [EG]2 [Ed] | c3 [EF]2 [Ec] | B3 F3 | FG[DA] Bc[Fd] | c3 [FA]2 [FA] | %6
w: 1.~Some- one has need of our|sing- ing, Our|sing- ing, our|sing- ing;|Some- one has need of our|sing- ing, In|
w: 2.~Some- one has need of the|sto- ry, The|sto- ry, the|sto- ry;|Some- one has need of the|sto- ry, Of|
w: 3.~Here in His Book we are|learn- ing, Are|learn- ing, are|learn- ing,|Here in His book we are|learn- ing, His|
 c=B[_Ec] dc[C_E] | [CF]3- [CF]2 z | FG[EA] dc[EA] | G3 [DF]2 [DB] | B3 [EA]2 [Ec] | %11
w: glad- ness, or sor- row and|care. *|Com- fort and joy it is|bring- ing, Is|bring- ing, is|
w: love and re- demp- tion from|sin. *|So when we sing of His|glo- ry, His|glo- ry, His|
w: word, and His will, and His|way. *|Hearts to the Sav- ior are|turn- ing, Are|turn- ing, are|
 c3 [FB]2 [FB] | c=B[Gc] ed[Gc] | BA[FB] dc[FB] | G2 [EB] dc[Ed] | B6 |] %16
w: bring- ing, So|while we are rai- sing sweet|voic- es in prais- ing A|bless- ing for some- one|we|
w: glo- ry, We|sing of sal- va- tion, His|gift to cre- a- tion, A|bless- ing for some- one|we|
w: turn- ing; Oh,|may He now take us, ac-|cept us and make us, A|bless- ing for some- one|each|
V:2
 D2 D2 x2 | (E2 E) x3 | (E2 E) x3 | (D2 D) (D2 D) | D2 D2 x2 | (F2 F) x3 | =E2 =E2 x2 | x6 | %8
 E2 E2 x2 | (D2 D) x3 | (E2 E) x3 | (F2 F) x3 | G2 G2 x2 | F2 F2 x2 | GA E2 x2 | (D2 E D3) |] %16
V:3
 [B,,F,]2 [B,,F,] [B,,F,]2 [B,,F,] | ([B,,G,]2 [B,,G,]) [B,,G,]2 [B,,G,] | %2
 ([F,A,]2 [F,A,]) [F,A,]2 [F,A,] | ([B,,B,]2 [B,,B,]) [B,,B,]3 | %4
 [B,,F,]2 [B,,F,] [B,,F,]2 [B,,B,] | ([C,A,]2 [C,A,]) [C,C]2 [C,C] | %6
 [C,G,]2 [C,G,] [C,B,]2 [C,B,] | A,3- [F,,A,]2 z | [F,A,]2 [F,C] [F,A,]2 [F,C] | %9
 ([B,,B,]2 [B,,B,]) [B,,B,]2 [B,,F,] | ([C,F,]2 [C,F,]) [C,F,]2 [C,A,] | %11
 ([D,B,]2 [D,B,]) [D,B,]2 [D,B,] | [E,B,]2 [E,B,] [E,C]2 [E,E] | [F,D]2 [F,D] [F,B,]2 [D,B,] | %14
 [C,B,]2 [C,G,] [F,A,]2 [F,A,] | (B,2 G, F,3) |] %16
V:4
 x6 | x6 | x6 | x6 | x6 | x6 | x6 | F,2 C, x3 | x6 | x6 | x6 | x6 | x6 | x6 | x6 | B,,6 |] %16

